icons/plug-fill.svg

<svg xmlns="http://www.w3.org/2000/svg" width="24" height="24" fill="none"><g clip-path="url(#a)"><g><path fill="#121212" d="M13 18V20H19V22H13C12.4696 22 11.9609 21.7893 11.5858 21.4142C11.2107 21.0391 11 20.5304 11 20V18H8C6.93913 18 5.92172 17.5786 5.17157 16.8284C4.42143 16.0783 4 15.0609 4 14V10H20V14C20 15.0609 19.5786 16.0783 18.8284 16.8284C18.0783 17.5786 17.0609 18 16 18H13ZM16 6H19C19.2652 6 19.5196 6.10536 19.7071 6.29289C19.8946 6.48043 20 6.73478 20 7V9H4V7C4 6.73478 4.10536 6.48043 4.29289 6.29289C4.48043 6.10536 4.73478 6 5 6H8V2H10V6H14V2H16V6ZM12 14.5C12.2652 14.5 12.5196 14.3946 12.7071 14.2071C12.8946 14.0196 13 13.7652 13 13.5C13 13.2348 12.8946 12.9804 12.7071 12.7929C12.5196 12.6054 12.2652 12.5 12 12.5C11.7348 12.5 11.4804 12.6054 11.2929 12.7929C11.1054 12.9804 11 13.2348 11 13.5C11 13.7652 11.1054 14.0196 11.2929 14.2071C11.4804 14.3946 11.7348 14.5 12 14.5Z"/></g></g><defs><clipPath id="a"><rect width="24" height="24" fill="white"/></clipPath></defs></svg>

<svg width="24" height="24" fill="none" xmlns="http://www.w3.org/2000/svg"><g clip-path="url(#a)"><path d="M13 18v2h6v2h-6a2 2 0 0 1-2-2v-2H8a4 4 0 0 1-4-4v-4h16v4a4 4 0 0 1-4 4h-3Zm3-12h3a1 1 0 0 1 1 1v2H4V7a1 1 0 0 1 1-1h3V2h2v4h4V2h2v4Zm-4 8.5a1 1 0 1 0 0-2 1 1 0 0 0 0 2Z" /></g><defs><clipPath id="a"><path fill="#fff" d="M0 0h24v24H0z"/></clipPath></defs></svg>
